storage/app/icons/phosphoricons/fill/desktop-tower-fill.svg

<svg xmlns="http://www.w3.org/2000/svg" fill="currentColor" viewBox="0 0 256 256"><path d="M120 76v112a4 4 0 0 1-4 4H96v16h15.73a8.18 8.18 0 0 1 8.25 7.47 8 8 0 0 1-8 8.53H64.27a8.18 8.18 0 0 1-8.27-7.47 8 8 0 0 1 8-8.53h16v-16H32a24 24 0 0 1-24-24V96a24 24 0 0 1 24-24h84a4 4 0 0 1 4 4m128-28v160a16 16 0 0 1-16 16h-80a16 16 0 0 1-16-16V48a16 16 0 0 1 16-16h80a16 16 0 0 1 16 16m-44.1 133.57a12 12 0 1 0-10.34 10.33 12 12 0 0 0 10.34-10.33m20.1-78.1a8.18 8.18 0 0 0-8.27-7.47h-47.46a8.18 8.18 0 0 0-8.25 7.47 8 8 0 0 0 8 8.53h48a8 8 0 0 0 7.98-8.53m0-32a8.18 8.18 0 0 0-8.27-7.47h-47.46a8.18 8.18 0 0 0-8.27 7.47 8 8 0 0 0 8 8.53h48a8 8 0 0 0 8-8.53"/></svg>

<svg xmlns="http://www.w3.org/2000/svg" viewBox="0 0 256 256" fill="currentColor"><path d="M120,76V188a4,4,0,0,1-4,4H96v16h15.73a8.18,8.18,0,0,1,8.25,7.47,8,8,0,0,1-8,8.53H64.27A8.18,8.18,0,0,1,56,216.53,8,8,0,0,1,64,208H80V192H32A24,24,0,0,1,8,168V96A24,24,0,0,1,32,72h84A4,4,0,0,1,120,76ZM248,48V208a16,16,0,0,1-16,16H152a16,16,0,0,1-16-16V48a16,16,0,0,1,16-16h80A16,16,0,0,1,248,48ZM203.9,181.57a12,12,0,1,0-10.34,10.33A12,12,0,0,0,203.9,181.57ZM224,103.47A8.18,8.18,0,0,0,215.73,96H168.27a8.18,8.18,0,0,0-8.25,7.47,8,8,0,0,0,8,8.53h48A8,8,0,0,0,224,103.47Zm0-32A8.18,8.18,0,0,0,215.73,64H168.27A8.18,8.18,0,0,0,160,71.47,8,8,0,0,0,168,80h48A8,8,0,0,0,224,71.47Z"/></svg>
